packages/sources/icons/src/vitamix/eye-off-line.svg

<svg width="16" height="16" viewBox="0 0 16 16" fill="none" xmlns="http://www.w3.org/2000/svg">
<path fill-rule="evenodd" clip-rule="evenodd" d="M8.00004 14C9.38836 14.0022 10.7485 13.6084 11.921 12.8649L14.1274 15.0713L15.0707 14.1286L1.87137 0.92865L0.928035 1.87198L3.01404 3.95598C1.85512 5.02858 1.07406 6.44713 0.787369 7.99998C1.4147 11.4133 4.40537 14 8.00004 14ZM3.9567 4.89997C3.05071 5.7237 2.41958 6.80583 2.1487 7.99997C2.57085 9.84709 3.84022 11.3865 5.57307 12.1528C7.30592 12.9192 9.29886 12.8225 10.9494 11.892L9.59737 10.54C8.41201 11.2867 6.86769 11.1135 5.87709 10.1229C4.88648 9.13232 4.71336 7.588 5.46004 6.40264L3.9567 4.89997ZM6.44802 7.39061L8.60868 9.55128C7.99162 9.79369 7.28955 9.64733 6.82076 9.17853C6.35197 8.70974 6.2056 8.00768 6.44802 7.39061ZM13.8714 11.0613L12.9174 10.108C13.363 9.47287 13.6803 8.75679 13.8514 8C13.4852 6.39639 12.4771 5.01325 11.0626 4.17374C9.64811 3.33423 7.95109 3.11189 6.36805 3.55867L5.31605 2.50667C6.14738 2.18001 7.05338 2.00001 8.00005 2.00001C11.5947 2.00001 14.5854 4.58667 15.2127 8C15.0084 9.11047 14.5493 10.1584 13.8714 11.0613ZM10.1217 5.87827C9.51361 5.27015 8.67374 4.95226 7.81536 5.00531H7.8147L10.9947 8.18464C11.0477 7.32626 10.7299 6.4864 10.1217 5.87827Z" fill="#001018"/>
</svg>

<svg width="16" height="16" fill="none" xmlns="http://www.w3.org/2000/svg"><path fill-rule="evenodd" clip-rule="evenodd" d="M8 14a7.3 7.3 0 0 0 3.921-1.135l2.206 2.206.944-.942L1.87.929l-.943.943 2.086 2.084A7.321 7.321 0 0 0 .787 8 7.336 7.336 0 0 0 8 14zM3.957 4.9A5.977 5.977 0 0 0 2.149 8a6.003 6.003 0 0 0 8.8 3.892L9.597 10.54A3 3 0 0 1 5.46 6.403L3.957 4.9zm2.491 2.49 2.16 2.161a1.667 1.667 0 0 1-2.16-2.16zm7.423 3.671-.954-.953A5.958 5.958 0 0 0 13.851 8a6.004 6.004 0 0 0-7.483-4.441L5.316 2.507A7.336 7.336 0 0 1 15.213 8a7.298 7.298 0 0 1-1.342 3.061zm-3.75-5.183a3 3 0 0 0-2.306-.873l3.18 3.18a3 3 0 0 0-.873-2.307z" fill="#001018"/></svg>
